uiw/copyright.svg

<svg xmlns="http://www.w3.org/2000/svg" viewBox="0 0 20 20" height="1em" width="1em">
  <path fill="#555" d="M10,0 C15.5228475,0 20,4.4771525 20,10 C20,15.5228475 15.5228475,20 10,20 C4.4771525,20 0,15.5228475 0,10 C0,4.4771525 4.4771525,0 10,0 Z M10,1.39534884 C5.24778239,1.39534884 1.39534884,5.24778239 1.39534884,10 C1.39534884,14.7522176 5.24778239,18.6046512 10,18.6046512 C14.7522176,18.6046512 18.6046512,14.7522176 18.6046512,10 C18.6046512,5.24778239 14.7522176,1.39534884 10,1.39534884 Z M10.1608281,4.65116279 C11.2407883,4.65116279 12.2765676,4.95403249 13.1634208,5.51450758 C13.489141,5.72035686 13.5863156,6.1512791 13.3804664,6.47699935 C13.1746171,6.80271959 12.7436948,6.89989421 12.4179746,6.69404493 C11.7531133,6.27386468 10.9755922,6.04651163 10.1608281,6.04651163 C7.88334672,6.04651163 6.04651163,7.82195536 6.04651163,10 C6.04651163,12.1780446 7.88334672,13.9534884 10.1608281,13.9534884 C10.9621908,13.9534884 11.7276015,13.7335795 12.3854823,13.3262798 C12.7130933,13.1234531 13.143098,13.2246106 13.3459247,13.5522215 C13.5487514,13.8798325 13.4475939,14.3098372 13.119983,14.5126639 C12.2425202,15.0559086 11.2229586,15.3488372 10.1608281,15.3488372 C7.1231311,15.3488372 4.65116279,12.9594879 4.65116279,10 C4.65116279,7.04051208 7.1231311,4.65116279 10.1608281,4.65116279 Z"/>
</svg>

<svg xmlns="http://www.w3.org/2000/svg" viewBox="0 0 20 20" height="1em" width="1em">
  <path fill="#555" d="M10 0c5.523 0 10 4.477 10 10s-4.477 10-10 10S0 15.523 0 10 4.477 0 10 0Zm0 1.395a8.605 8.605 0 1 0 0 17.21 8.605 8.605 0 0 0 0-17.21Zm.16 3.256c1.08 0 2.117.303 3.003.864a.698.698 0 0 1-.745 1.179 4.211 4.211 0 0 0-2.257-.647c-2.278 0-4.114 1.775-4.114 3.953s1.836 3.953 4.114 3.953c.801 0 1.567-.22 2.224-.627a.698.698 0 0 1 .735 1.187 5.608 5.608 0 0 1-2.96.836c-3.037 0-5.509-2.39-5.509-5.349 0-2.96 2.472-5.349 5.51-5.349Z"/>
</svg>
